icon/cg/edit-shadows.svg

<svg viewBox="0 0 24 24" fill="none" xmlns="http://www.w3.org/2000/svg" height="1em" width="1em">
  <path d="M15.3056 6.99194C14.3578 6.36502 13.2215 6 12 6C8.68629 6 6 8.68629 6 12C6 15.3137 8.68629 18 12 18C13.2267 18 14.3675 17.6318 15.3178 17H12V16H16.4722C16.9906 15.4208 17.3981 14.7404 17.6614 13.9919H12V12.9919H17.9184C17.9721 12.6693 18 12.3379 18 12C18 11.6683 17.9731 11.3428 17.9213 11.0258H12V10.0258H17.6676C17.4033 9.26689 16.9909 8.57742 16.465 7.99194H12V6.99194H15.3056Z" fill="currentColor"/>
  <path fill-rule="evenodd" clip-rule="evenodd" d="M22 12C22 6.47715 17.5228 2 12 2C6.47715 2 2 6.47715 2 12C2 17.5228 6.47715 22 12 22C17.5228 22 22 17.5228 22 12ZM12 20C16.4183 20 20 16.4183 20 12C20 7.58172 16.4183 4 12 4C7.58172 4 4 7.58172 4 12C4 16.4183 7.58172 20 12 20Z" fill="currentColor"/>
</svg>

<svg width="24" height="24" fill="none" xmlns="http://www.w3.org/2000/svg"><path d="M15.306 6.992A6 6 0 1 0 15.318 17H12v-1h4.472c.519-.58.926-1.26 1.19-2.008H12v-1h5.918a6.038 6.038 0 0 0 .003-1.966H12v-1h5.668a5.996 5.996 0 0 0-1.203-2.034H12v-1h3.306Z" fill="currentColor"/><path fill-rule="evenodd" clip-rule="evenodd" d="M22 12c0-5.523-4.477-10-10-10S2 6.477 2 12s4.477 10 10 10 10-4.477 10-10Zm-10 8a8 8 0 1 0 0-16 8 8 0 0 0 0 16Z" fill="currentColor"/></svg>
